X: 23243
T: Leav's
R: waltz
M: 3/4
K: Gmajor
|:D|G>AB d2B/d/|e>dB d>ef|g>fe dBd|B>AG E2 D|
G>AB d2B/d/|e>dB d>ef|gde dcB|A3 G2:|
|:g/a/|b>ag a2g/a/|b>ag e2d|g>fe d<ge|d>cB A2d/c/|
B>AB c2B/c/|def g2a|b>ge dcB|A3 G2:|

